dist/svg/report.svg

<!-- Generated by Trend Micro Style Portal -->
<svg version="1.1" xmlns="http://www.w3.org/2000/svg" width="16" height="16" viewBox="0 0 16 16">
  <title>report</title>
  <path fill="rgb(34,34,34)" d="M14 0h-12c-0.5 0-1 0.5-1 1v14c0 0.5 0.5 1 1 1h12c0.5 0 1-0.5 1-1v-14c0-0.6-0.4-1-1-1zM14 15h-12v-13h12v13zM12 12h-8v-1h8v1zM12 14h-8v-1h8v1zM9 10h-2v-5h2v5zM12 10h-2v-7h2v7zM6 10h-2v-3h2v3z"></path>
</svg>

<svg width="16" height="16" viewBox="0 0 16 16" fill="rgb(34, 34, 34)" xmlns="http://www.w3.org/2000/svg"><title>report</title><path d="M14 0H2C1.5 0 1 0.5 1 1V15C1 15.5 1.5 16 2 16H14C14.5 16 15 15.5 15 15V1C15 0.4 14.6 0 14 0ZM14 15H2V2H14V15ZM12 12H4V11H12V12ZM12 14H4V13H12V14ZM9 10H7V5H9V10ZM12 10H10V3H12V10ZM6 10H4V7H6V10Z" fill="rgb(34, 34, 34)" fill-opacity="1.00"/></svg>
